X:1
T:Old South
T:G minor         William Billings, 1770
T:Isaac Watts, 1719 (Hymn 94, Book 1)  86. 86. (C. M.)
T:Transcribed from The New-England Psalm-Singer, 1770.
%%score [ 1 2 3 4 ]
L:1/8
M:4/4
K:Bb
V:1 treble nm="Tr." snm="Tr."
V:2 treble nm="C." snm="C."
V:3 treble-8 nm="T." snm="T."
V:4 bass nm="B." snm="B."
V:1
"_1. Vain are the hopes the sons of men  On their own works have built;  Their hearts by na  – ture     all              unclean,  And all their ac    –   tions  guilt." G4 | %1
 A2 A2 (B2 c2) | d2 B2 A4 | G4 F4 || F4 (G2 B2) | (A2 c2) (d2 G2) | (F2 A2) G4 || B4 B2 c2 | %8
 (d2 c2 B2) A2 | (G2 B2 A2) G2 | F4 d4 | d2 c2 (d2 c2) | B2 A2 d4 | d8 |] %14
V:2
"_2. Let Jew and Gentile stop their mouths Without a murmuring word,  And the whole race  of           Ad     –    am  stand   Guil–ty  be–fore         the  Lord." D4 | %1
 D2 D2 (D2 E2) | F2 F2 F4 | D4 D4 || F4 D4 | F4 D4 | D4 D4 || G4 G2 F2 | G4 D4 | (G2 D2 F2) D2 | %10
 D4 F4 | D2 C2 (D2 F2) | E4 D4 | D8 |] %14
V:3
"_3. In vain we ask God's righteous law   To jus  –   ti   –    fy        us  now;   Since  to  convince      and     to             condemn   Is    all  the  law           can   do." G4 | %1
 F2 D2 (G2 A2 | B2) d2 c4 | B4 A4 || A4 (B2 d2) | (c2 A2) (B2 G2) | (A2 F2) G4 || d4 B2 A2 | %8
 (B2 c2 d2) cA | (B2 d2 c2) B2 | A4 d4 | B2 A2 (B2 d2) | c2 B2 A4 | G8 |] %14
V:4
"_4. Je –sus, how glorious is Thy grace!  When  in  thy  name  we   trust;  Our  faith  receives      a         right  –  eous–ness  That makes the sin  – ner  just.""_______________________________________________\nEdited by B. C. Johnston, 2018\n   1. Lower \"choosing notes\" removed in \nBass\n and \nTreble\n.\n   2. Whole piece transposed down from B minor to G minor.\n   3. Measure 10, Counter: first note changed from F to G." G,4 | %1
 D,2 D,2 (G,2 F,2 | B,,2) B,,2 F,4 | G,4 D,4 || D,4 B,,4 | F,4 G,4 | D,4 G,,4 || G,4 G,2 F,2 | %8
 (G,2 F,E, D,2) F,2 | (G,2 D,E, F,2) G,2 | D,4 D,4 | G,2 F,2 (B,,4 | C,4) D,4 | G,,8 |] %14

